X: 30788
T: Ostinelli's
R: reel
M: 4/4
K: Gmajor
Bc|:dGeG dGgG|bGgG dGeG|dgfe dcBc|dcBc ABc^c|
dGeG dGgG|bGgG dGeG|dgfe dcBA|1 GgdB GABc:|2 GgdB {GA}G2||
|:{EF}ED|DGDB GdBg|dd'bg dbgd|BgdB GdBG|cBAG FEDC|
B,GDB GdBg|dd'bg dbgd|BgdB A^cfe|((3ded) ((3cBA) {GA}G2:|

